X:2826
T:Polonäs
T:ur Kumlins notsamling (nr 18)
B:Kumlins notsamling, nr 18
B:http://www.smus.se/earkiv/fmk/browselarge.php?lang=sw&katalogid=Ma+4&bildnr=00016
O:Närke
R:Slängpolska
Z:Nils Liberg
M:3/4
L:1/16
K:Dm
A2d2 d2^c2 d2e2 | f2a2 f2ed e4 | ABAG ABAG ABAG | ABAG AGFD ^CDEA, |
A2d2 d2^c2 d2e2 | f2a2 f2ed e4 | bagf agfe gfed | ^cdec d4 D4 ::
a4 agfg a2f2 | defg agfe gfed | g4 g2fg a2f2 | DEFG A2F2 E2D2 |
A2d2 d2^c2 d2e2 | f2a2 f2ed e4 | bagf agfe gfed | ^cdec d4 D4 :| 
(:musicend:)
(:music:)
